build/Karasa-Jaga/scalable/actions/media-skip-forward-symbolic.svg

<svg height="16" width="16" xmlns="http://www.w3.org/2000/svg"><g fill="#bebebe"><path d="m11.5 4v8h-2v-3.34375l-5 3.34375v-8l5 3.34375v-3.34375z"/><path d="m8 .09375c4.362113 0 7.90625 3.5441366 7.90625 7.90625 0 4.362113-3.544137 7.90625-7.90625 7.90625s-7.90625-3.544137-7.90625-7.90625c0-4.3621134 3.544137-7.90625 7.90625-7.90625zm0 1.6269531c-3.464383 0-6.279297 2.8149133-6.279297 6.2792969 0 3.464383 2.814914 6.279297 6.279297 6.279297 3.464384 0 6.279297-2.814914 6.279297-6.279297 0-3.4643836-2.814913-6.2792969-6.279297-6.2792969z"/></g></svg>

<?xml version="1.0" encoding="UTF-8" standalone="no"?>
<!-- Created with Inkscape (http://www.inkscape.org/) -->

<svg
   xmlns:dc="http://purl.org/dc/elements/1.1/"
   xmlns:cc="http://creativecommons.org/ns#"
   xmlns:rdf="http://www.w3.org/1999/02/22-rdf-syntax-ns#"
   xmlns:svg="http://www.w3.org/2000/svg"
   xmlns="http://www.w3.org/2000/svg"
   xmlns:xlink="http://www.w3.org/1999/xlink"
   xmlns:sodipodi="http://sodipodi.sourceforge.net/DTD/sodipodi-0.dtd"
   xmlns:inkscape="http://www.inkscape.org/namespaces/inkscape"
   id="svg7384"
   height="16"
   width="16"
   version="1.1"
   inkscape:version="0.92.2 (unknown)"
   sodipodi:docname="media-skip-backward-rtl-symbolic.svg">
  <defs
     id="defs7527">
    <inkscape:perspective
       id="perspective18"
       inkscape:persp3d-origin="8 : 5.3333333 : 1"
       inkscape:vp_z="16 : 8 : 1"
       inkscape:vp_y="0 : 1000 : 0"
       inkscape:vp_x="0 : 8 : 1"
       sodipodi:type="inkscape:persp3d" />
    <linearGradient
       gradientUnits="userSpaceOnUse"
       y2="13.168831"
       x2="5.8043289"
       y1="4.7809148"
       x1="5.8043289"
       gradientTransform="scale(1.1952286,0.83666)"
       id="StandardGradient">
      <stop
         id="stop3389"
         offset="0"
         style="stop-color:#000000;stop-opacity:0.86274511;" />
      <stop
         id="stop3391"
         offset="1"
         style="stop-color:#000000;stop-opacity:0.47058824;" />
    </linearGradient>
    <inkscape:perspective
       sodipodi:type="inkscape:persp3d"
       inkscape:vp_x="0 : 0.5 : 1"
       inkscape:vp_y="0 : 1000 : 0"
       inkscape:vp_z="1 : 0.5 : 1"
       inkscape:persp3d-origin="0.5 : 0.33333333 : 1"
       id="perspective3648" />
    <linearGradient
       y2="13.168831"
       x2="5.8043289"
       y1="4.7809148"
       x1="5.8043289"
       gradientTransform="matrix(-1.1952286,0,0,0.83666,-25,0)"
       gradientUnits="userSpaceOnUse"
       id="linearGradient3627"
       xlink:href="#StandardGradient"
       inkscape:collect="always" />
    <clipPath
       id="clipPath3634"
       clipPathUnits="userSpaceOnUse">
      <path
         id="path3636"
         d="m -20,0 0,16 16,0 0,-16 -16,0 z m 2,4 5,3.34375 L -13,4 -8,7.34375 -8,4 -6,4 -6,12 -8,12 -8,8.65625 -13,12 -13,8.65625 -18,12 -18,4 z"
         style="fill:#ff00ff;fill-opacity:1;stroke:none;display:inline" />
    </clipPath>
    <linearGradient
       y2="13.168831"
       x2="5.8043289"
       y1="4.7809148"
       x1="5.8043289"
       gradientTransform="matrix(-1.1952286,0,0,0.83666,-5,0)"
       gradientUnits="userSpaceOnUse"
       id="linearGradient5025"
       xlink:href="#StandardGradient"
       inkscape:collect="always" />
  </defs>
  <sodipodi:namedview
     pagecolor="#ffffff"
     bordercolor="#666666"
     borderopacity="1"
     objecttolerance="10"
     gridtolerance="10"
     guidetolerance="10"
     inkscape:pageopacity="0"
     inkscape:pageshadow="2"
     inkscape:window-width="1366"
     inkscape:window-height="716"
     id="namedview7525"
     showgrid="false"
     inkscape:zoom="10.429825"
     inkscape:cx="-4.6657812"
     inkscape:cy="7.189733"
     inkscape:window-x="0"
     inkscape:window-y="27"
     inkscape:window-maximized="1"
     inkscape:current-layer="svg7384" />
  <metadata
     id="metadata90">
    <rdf:RDF>
      <cc:Work
         rdf:about="">
        <dc:format>image/svg+xml</dc:format>
        <dc:type
           rdf:resource="http://purl.org/dc/dcmitype/StillImage" />
        <dc:title>Gnome Symbolic Icon Theme</dc:title>
      </cc:Work>
    </rdf:RDF>
  </metadata>
  <title
     id="title9167">Gnome Symbolic Icon Theme</title>
  <g
     id="g946">
    <g
       inkscape:label="Calque 1"
       id="layer1">
      <path
         inkscape:connector-curvature="0"
         style="opacity:1;fill:#bebebe;fill-opacity:1;fill-rule:nonzero;stroke:none;stroke-width:1;stroke-linecap:square;stroke-linejoin:round;stroke-miterlimit:4;stroke-dasharray:none;stroke-dashoffset:0;stroke-opacity:1"
         d="m 11.5,4 v 8 h -2 V 8.65625 L 4.5,12 V 4 l 5,3.34375 V 4 Z"
         id="Symbol"
         sodipodi:nodetypes="ccccccccc" />
    </g>
    <path
       id="path7529"
       d="m 8,0.09375 c 4.362113,0 7.90625,3.5441366 7.90625,7.90625 0,4.362113 -3.544137,7.90625 -7.90625,7.90625 C 3.637887,15.90625 0.09375,12.362113 0.09375,8 0.09375,3.6378866 3.637887,0.09375 8,0.09375 Z M 8,1.7207031 C 4.535617,1.7207031 1.720703,4.5356164 1.720703,8 c 0,3.464383 2.814914,6.279297 6.279297,6.279297 3.464384,0 6.279297,-2.814914 6.279297,-6.279297 C 14.279297,4.5356164 11.464384,1.7207031 8,1.7207031 Z"
       style="fill:#bebebe;fill-opacity:1;stroke:none"
       inkscape:connector-curvature="0" />
  </g>
</svg>
